svgs/duotone/folder-arrow-up.svg

<svg xmlns="http://www.w3.org/2000/svg" viewBox="0 0 512 512"><!--! Font Awesome Pro 6.3.0 by @fontawesome - https://fontawesome.com License - https://fontawesome.com/license (Commercial License) Copyright 2023 Fonticons, Inc. --><defs><style>.fa-secondary{opacity:.4}</style></defs><path class="fa-primary" d="M352.1 304.1C348.3 309.7 342.2 312 336 312s-12.28-2.344-16.97-7.031L280 265.9V376c0 13.25-10.75 24-24 24s-24-10.75-24-24V265.9L192.1 304.1c-9.375 9.375-24.56 9.375-33.94 0s-9.375-24.56 0-33.94l80-80c9.375-9.375 24.56-9.375 33.94 0l80 80C362.3 280.4 362.3 295.6 352.1 304.1z"/><path class="fa-secondary" d="M464 96h-192l-64-64h-160C21.5 32 0 53.5 0 80v352C0 458.5 21.5 480 48 480h416c26.5 0 48-21.5 48-48v-288C512 117.5 490.5 96 464 96zM352.1 304.1C348.3 309.7 342.2 312 336 312s-12.28-2.344-16.97-7.031L280 265.9V376c0 13.25-10.75 24-24 24s-24-10.75-24-24V265.9L192.1 304.1c-9.375 9.375-24.56 9.375-33.94 0s-9.375-24.56 0-33.94l80-80c9.375-9.375 24.56-9.375 33.94 0l80 80C362.3 280.4 362.3 295.6 352.1 304.1z"/></svg>

<svg xmlns="http://www.w3.org/2000/svg" viewBox="0 0 512 512"><!-- Font Awesome Pro 6.0.0-alpha2 by @fontawesome - https://fontawesome.com License - https://fontawesome.com/license (Commercial License) --><defs><style>.fa-secondary{opacity:.4}</style></defs><path d="M464 96H272L208 32H48C21.5 32 0 53.5 0 80V432C0 458.5 21.5 480 48 480H464C490.5 480 512 458.5 512 432V144C512 117.5 490.5 96 464 96ZM352.969 304.969C348.281 309.656 342.156 312 336 312S323.719 309.656 319.031 304.969L280 265.938V376C280 389.25 269.25 400 256 400S232 389.25 232 376V265.938L192.969 304.969C183.594 314.344 168.406 314.344 159.031 304.969S149.656 280.406 159.031 271.031L239.031 191.031C248.406 181.656 263.594 181.656 272.969 191.031L352.969 271.031C362.344 280.406 362.344 295.594 352.969 304.969Z" class="fa-secondary"/><path d="M352.968 304.969C348.28 309.656 342.155 312 335.999 312S323.718 309.656 319.03 304.969L279.999 265.938V376C279.999 389.25 269.249 400 255.999 400S231.999 389.25 231.999 376V265.938L192.968 304.969C183.592 314.344 168.405 314.344 159.03 304.969S149.655 280.406 159.03 271.031L239.03 191.031C248.405 181.656 263.592 181.656 272.968 191.031L352.968 271.031C362.343 280.406 362.343 295.594 352.968 304.969Z" class="fa-primary"/></svg>
